X: 32
T:Det haver s\aa nyligen regnet
M:C
L:1/8
Q:1/4=120
C:anon.
O:Denmark
Z:Transcribed by Frank Nordberg - http://www.musicaviva.com
K:D
%http://www.musicaviva.com/abc/denmark.abc
DF|"D"A2 AA "G"BA GF|"D"F2 "A"E2z2EE|"A"A2AA "E7"^GA Bc|"A"A4 z2 ::"D"FF
|
"D"F2 "A"EE E2 GG|"A"G2 "Bm"FFF2 "A7"AA|"D"d2FF "A7"AG EC|"D"D4 z2:|]
%As far as I know, the best known lyrics to this tune (by J. Ottesen) is
*%still copyrighted. Sorry.
W:
W: From "Falaleiro" http://home.t-online.de/home/pheld/homepage.htm

